X:1
T:Quintana Roo, LM
T:Quintana Roo, LM
T:Thomas F. McBeath, 1899
T:Public Domain Courtesy of the Cyber Hymnal™
C:Thomas F. McBeath, 1899
Z:Public Domain
Z:Courtesy of the Cyber Hymnal™
%%score 1 ( 2 3 )
L:1/8
Q:1/4=105
M:6/8
K:Ab
V:1 treble 
V:2 bass 
V:3 bass 
V:1
 [CE] | [CE]2 [Ec] [Ec]2 [Fd] | [Ec]2 [EB] [EB]2 [Ed] | [Ed]2 [DF] [DF]2 [DG] | %4
 [CF]2 [CE] [CE]2 [CE] | [CE]2 [CA] [Ec]2 [_Ge] | [Fe]2 [Fd] [DF]2 [DF] | [Fd]2 [DF] [CE]2 [CE] | %8
 [DF]2 [DG] !fermata![CA]2 |] %9
V:2
 A, | A,2 A, A,2 A, | [E,A,]2 [E,G,] [E,G,]2 [E,B,] | [E,B,]2 [E,B,] [E,B,]2 [E,B,] | %4
 [A,,A,]2 [A,,A,] [A,,A,]2 [A,,A,] | [A,,A,]2 [A,,A,] [A,,A,]2 [C,A,] | %6
 [D,A,]2 [D,A,] [D,A,]2 [D,A,] | [D,A,]2 [D,A,] [A,,A,]2 [A,,A,] | %8
 [E,G,]2 [E,B,] !fermata![A,,A,]2 |] %9
V:3
 A, | A,2 A, A,2 A, | x6 | x6 | x6 | x6 | x6 | x6 | x5 |] %9

